X:640
T:Sporting Pitchfork
R:jig
Z:Transcribed by Dave Marshall
M:6/8
K:D
|: ~F3 ~E3 | FEF DEF | ~G3 AGA | =cAG FGA |
~B3 BAG | ABA ABc | dcA AGF | AGF G3 :|
|: ~d3 fed | fgf def | ~g3 bag | fdc d2=c |
~B3 BAG | ABA ABc | dcA AGF | AGF G3 :|
